packages/ffe-icons/icons/filled/md/nest_display_max.svg

<svg xmlns="http://www.w3.org/2000/svg" height="24" viewBox="0 -960 960 960" width="24"><path d="M480-564.616q14.692 0 25.038-10.346T515.384-600q0-14.692-10.346-25.038T480-635.384q-14.692 0-25.038 10.346T444.616-600q0 14.692 10.346 25.038T480-564.616Zm0 354.615q-98.231 0-164.115-12.538-65.884-12.539-65.884-31.154v-36.308h-80.693q-31.538 0-53.23-23.5Q94.385-337 97.001-368.539l26.615-315.384q2-27.923 22.885-46.999 20.884-19.077 49.422-19.077h568.154q28.538 0 49.422 19.077 20.885 19.076 22.885 46.999l26.615 315.384q2.616 31.539-19.077 55.038-21.692 23.5-53.23 23.5h-80.693v36.308q0 18.615-65.884 31.154Q578.231-210.001 480-210.001Z"/></svg>

<svg xmlns="http://www.w3.org/2000/svg" height="24" viewBox="0 -960 960 960" width="24"><path d="M480-564.62q14.69 0 25.04-10.34 10.34-10.35 10.34-25.04t-10.34-25.04q-10.35-10.34-25.04-10.34t-25.04 10.34q-10.34 10.35-10.34 25.04t10.34 25.04q10.35 10.34 25.04 10.34ZM480-210q-98.23 0-164.11-12.54Q250-235.08 250-253.69V-290h-80.69q-31.54 0-53.23-23.5Q94.39-337 97-368.54l26.62-315.38q2-27.93 22.88-47Q167.39-750 195.92-750h568.16q28.53 0 49.42 19.08 20.88 19.07 22.88 47L863-368.54q2.61 31.54-19.08 55.04-21.69 23.5-53.23 23.5H710v36.31q0 18.61-65.89 31.15Q578.23-210 480-210Z"/></svg>
